X:3595
T:Le vicaire
O:england
C:Esbelin/Pauvert
M:2/4
L:1/16
K:C
e2e2 e2de|f2ed d2c2|g2g2 g2fg|a2gf g4:|\
|:g2g2 a3f|edef g4|cBcd edef|1 gfed e2c2:|2 gfed c4||


